fs/building_government_24_filled.svg

<svg viewBox="0 0 24 24" fill="none" xmlns="http://www.w3.org/2000/svg" height="1em" width="1em">
  <path d="M15.5 2H11.75C11.3358 2 11 2.33579 11 2.75V6.07089C7.60771 6.55612 5 9.47353 5 13H4.25C3.00736 13 2 14.0074 2 15.25V21.25C2 21.6642 2.33579 22 2.75 22H10C10.1381 22 10.25 21.8881 10.25 21.75V18.75C10.25 18.4739 10.4739 18.25 10.75 18.25H13.25C13.5261 18.25 13.75 18.4739 13.75 18.75V21.75C13.75 21.8881 13.8619 22 14 22H21.25C21.6642 22 22 21.6642 22 21.25V15.25C22 14.0074 20.9926 13 19.75 13H19C19 9.30212 16.1326 6.27396 12.5 6.01758V5H15.5C15.7761 5 16 4.77614 16 4.5V2.5C16 2.22386 15.7761 2 15.5 2ZM15.5 11.75V13.75C15.5 14.1642 15.1642 14.5 14.75 14.5C14.3358 14.5 14 14.1642 14 13.75V11.75C14 11.3358 14.3358 11 14.75 11C15.1642 11 15.5 11.3358 15.5 11.75ZM11.75 11C12.1642 11 12.5 11.3358 12.5 11.75V13.75C12.5 14.1642 12.1642 14.5 11.75 14.5C11.3358 14.5 11 14.1642 11 13.75V11.75C11 11.3358 11.3358 11 11.75 11ZM9.5 11.75V13.75C9.5 14.1642 9.16421 14.5 8.75 14.5C8.33579 14.5 8 14.1642 8 13.75V11.75C8 11.3358 8.33579 11 8.75 11C9.16421 11 9.5 11.3358 9.5 11.75ZM5.75 15.5C6.16421 15.5 6.5 15.8358 6.5 16.25V18.75C6.5 19.1642 6.16421 19.5 5.75 19.5C5.33579 19.5 5 19.1642 5 18.75V16.25C5 15.8358 5.33579 15.5 5.75 15.5ZM19 16.25V18.75C19 19.1642 18.6642 19.5 18.25 19.5C17.8358 19.5 17.5 19.1642 17.5 18.75V16.25C17.5 15.8358 17.8358 15.5 18.25 15.5C18.6642 15.5 19 15.8358 19 16.25Z" fill="#212121"/>
</svg>

<svg viewBox="0 0 24 24" fill="none" xmlns="http://www.w3.org/2000/svg" height="1em" width="1em">
  <path d="M15.5 2h-3.75a.75.75 0 0 0-.75.75v3.32A7.002 7.002 0 0 0 5 13h-.75A2.25 2.25 0 0 0 2 15.25v6c0 .414.336.75.75.75H10a.25.25 0 0 0 .25-.25v-3a.5.5 0 0 1 .5-.5h2.5a.5.5 0 0 1 .5.5v3c0 .138.112.25.25.25h7.25a.75.75 0 0 0 .75-.75v-6A2.25 2.25 0 0 0 19.75 13H19a7 7 0 0 0-6.5-6.982V5h3a.5.5 0 0 0 .5-.5v-2a.5.5 0 0 0-.5-.5Zm0 9.75v2a.75.75 0 0 1-1.5 0v-2a.75.75 0 0 1 1.5 0ZM11.75 11a.75.75 0 0 1 .75.75v2a.75.75 0 0 1-1.5 0v-2a.75.75 0 0 1 .75-.75Zm-2.25.75v2a.75.75 0 0 1-1.5 0v-2a.75.75 0 0 1 1.5 0ZM5.75 15.5a.75.75 0 0 1 .75.75v2.5a.75.75 0 0 1-1.5 0v-2.5a.75.75 0 0 1 .75-.75Zm13.25.75v2.5a.75.75 0 0 1-1.5 0v-2.5a.75.75 0 0 1 1.5 0Z" fill="#212121"/>
</svg>
